svg/delay.svg

<svg viewBox="0 0 24 24" fill="none" xmlns="http://www.w3.org/2000/svg"><path fill-rule="evenodd" clip-rule="evenodd" d="M12 18.75C15.7279 18.75 18.75 15.7279 18.75 12H21C21 16.9706 16.9706 21 12 21C7.02944 21 3 16.9706 3 12C3 7.02944 7.02944 3 12 3V5.25C8.27208 5.25 5.25 8.27208 5.25 12C5.25 15.7279 8.27208 18.75 12 18.75ZM20.7532 9.89814L18.565 10.4217C18.4822 10.0756 18.3727 9.73993 18.2387 9.41684L20.3171 8.55497C20.4961 8.98676 20.6425 9.43551 20.7532 9.89814ZM19.6749 7.29702L17.7576 8.47443C17.5721 8.17235 17.3633 7.88568 17.1336 7.61701L18.8438 6.15496C19.1495 6.5125 19.4276 6.89428 19.6749 7.29702ZM17.8451 5.15624L16.383 6.86647C16.1144 6.63679 15.8277 6.42798 15.5256 6.24247L16.703 4.32513C17.1058 4.57245 17.4876 4.85058 17.8451 5.15624ZM15.4451 3.68298L14.5832 5.76136C14.2601 5.62738 13.9245 5.51787 13.5784 5.43507L14.1019 3.24683C14.5645 3.35751 15.0133 3.50392 15.4451 3.68298ZM15.0609 14.0147L12.75 12.364V8.25H11.25V12.75V13.136L11.5641 13.3603L14.1891 15.2353L15.0609 14.0147Z" fill="#6F7682"/></svg>

<svg viewBox="0 0 24 24" fill="none" xmlns="http://www.w3.org/2000/svg"><path fill-rule="evenodd" clip-rule="evenodd" d="M12 18.75A6.75 6.75 0 0018.75 12H21a9 9 0 11-9-9v2.25a6.75 6.75 0 000 13.5zm8.753-8.852l-2.188.524a6.678 6.678 0 00-.326-1.005l2.078-.862c.18.432.325.88.436 1.343zm-1.078-2.601l-1.917 1.177a6.777 6.777 0 00-.624-.857l1.71-1.462c.305.357.584.74.83 1.142zm-1.83-2.14l-1.462 1.71a6.773 6.773 0 00-.857-.625l1.177-1.917c.403.247.785.526 1.142.831zm-2.4-1.474l-.862 2.078a6.68 6.68 0 00-1.005-.326l.524-2.188c.463.11.911.257 1.343.436zm-.384 10.332l-2.311-1.651V8.25h-1.5v4.886l.314.224 2.625 1.875.872-1.22z" fill="#6F7682"/></svg>
